src/ui/redo.svg

<?xml version="1.0" encoding="UTF-8"?><svg xmlns="http://www.w3.org/2000/svg" viewBox="0 0 32 32"><defs><style>.uuid-3b717115-49e9-4c88-b319-50f3827fd8e9{fill:none;}.uuid-3b717115-49e9-4c88-b319-50f3827fd8e9,.uuid-fc3a7e8d-c878-435f-a0ed-bc27bc5a244f{stroke-width:0px;}.uuid-fc3a7e8d-c878-435f-a0ed-bc27bc5a244f{fill:#151515;}</style></defs><g id="uuid-2a7d6287-bc6a-4c27-9265-db432aba3d15"><rect class="uuid-3b717115-49e9-4c88-b319-50f3827fd8e9" width="32" height="32"/></g><g id="uuid-e7af9e23-914d-4485-9260-5bb50fea9a87"><path class="uuid-fc3a7e8d-c878-435f-a0ed-bc27bc5a244f" d="M20.293,20.707c.1953.1953.4512.293.707.293s.5117-.0977.707-.293l8.6465-8.6465c.585-.585.585-1.5361,0-2.1211L21.707,1.293c-.3906-.3906-1.0234-.3906-1.4141,0s-.3906,1.0234,0,1.4141l7.293,7.293H11.5c-5.79,0-10.5,4.7104-10.5,10.5s4.71,10.5,10.5,10.5h13.5c.5527,0,1-.4478,1-1s-.4473-1-1-1h-13.5c-4.6865,0-8.5-3.813-8.5-8.5s3.8135-8.5,8.5-8.5h16.0859l-7.293,7.293c-.3906.3906-.3906,1.0234,0,1.4141Z"/></g></svg>

<svg xmlns="http://www.w3.org/2000/svg" viewBox="0 0 32 32">
  <path d="M0 0h32v32H0z" fill="none"/>
  <path d="M20.293 20.707a.997.997 0 0 0 1.414 0l8.646-8.646a1.501 1.501 0 0 0 0-2.122l-8.646-8.646a1 1 0 1 0-1.414 1.414L27.586 10H11.5C5.71 10 1 14.71 1 20.5S5.71 31 11.5 31H25a1 1 0 1 0 0-2H11.5C6.814 29 3 25.187 3 20.5S6.813 12 11.5 12h16.086l-7.293 7.293a1 1 0 0 0 0 1.414Z" fill="#151515"/>
</svg>
